X:1
T:The Well-Tempered Clavier Book II - XVI
T:BWV 885    (A = 415 Hz)
T:J. S. Bach
%%score { ( 1 4 5 ) | ( 2 3 ) }
L:1/8
Q:1/4=48
M:4/4
K:Bb
V:1 treble nm="Harp"
V:4 treble 
V:5 treble 
V:2 bass 
V:3 bass 
V:1
"^Largo""^Praeludium" z/ z/4 G/<D/F/4 E2- E/>E/(4:3:4E/4D/4E/4D/4C/4 A/>C/(4:3:4C/4B,/4C/4B,/4A,/4 | %1
 z/ z/4 d/<A/c/4 B2- B/>B/(4:3:4B/4A/4B/4A/4G/4 =e/>G/(4:3:4G/4^F/4G/4F/4=E/4 | %2
 ^F/>G/A- A/>D/G/>B/ c2- c/>d/A/>c/ | =B/>c/d- d/>G/c/>e/ f2- f/>g/d/>f/ | e2 z2 z2 d2- | %5
 d=B e2- e/>e/d/>c/ a2- | a/>g/d/>f/ eg ^c2 d2- | d4- d/>d/=e/>g/ ^c/>d/e- | %8
 e/>d/A/>c/ B2- B/>B/A/>G/ =e/>G/^F/>=E/ | ^F/>G/A- A/>D/G/>B/ c2- c/>d/A/>c/ | %10
 B2- B/>B/e/>g/ _A4- | A/>D/F/>_A/ G>G F2- F/>F/G/>D/ | E2- E/>e/A/>c/ ^F/>D/F/>A/ d2- | %13
 d2- d/>g/c/>e/ A/>F/A/>c/ f2- | f/>b/g/>d/ f/4=e/4f/4e/4f/4e/4e/ f2- f/>_e/d/>f/ | %15
 =B2 c2- c/>d/e/>_B/ c2- | c/>c/d/>A/ B2- B/>e/G/>B/ _Ac | ^F2 G2- G/>F/G/>B/- B/>B/A/>G/ | %18
 ^F>F G2- G/>B/A/>c/ F2 | G>F E>E D z/ G/ f>d | e3/2e/4d/4 e/>c/g/>^f/ !fermata!g4 | %21
[M:3/4]"^Fuga" z6 | z6 | z6 | z6 | z2 G2 z F | B2 G2 z =E | A2 F2 z D | GG GG GG | z2 d2 z B | %30
 e2 c2 z A | d2 B2 z G | cc cc cc | cB/A/ B/G/B/c/ d/^c/d | dG z/ G/A/B/ c/B/c | %35
 cF z/ F/G/A/ B/A/B- | B/A/B/A/ G/F/G/F/ =E/D/E/D/ | ^CA Dc =B/d/f | e2 z2 z z/ a/ | %39
 b>a g/^f/g/f/ g2- | g2 ^f>a d>c | B4 A2- | A/A/B/A/ G>^F G2- | G>B A>c ^F>A | D>^F G z z z/ B/- | %45
 B/B/A/G/ A/A/=B/c/ d/c/d | dc/=B/ c2 z z/ c/- | c/c/B/A/ B/d/=e/f/ g/f/g- | %48
 gf/=e/ f/d/f/g/ a/g/a | ad z/ d/=e/f/ g/f/g | gc z/ c/d/=e/ f/e/f- | f>f =e/d/e/d/ ^c/d/e- | %52
 ed f2 z d | g2 e2 z c | f2 d2 z B | ee ee ee- | ed/e/ f/B/f/g/ a/g/a | ad z/ d/=e/f/ g/f/g | %58
 gc z/ c/d/=e/ f/e/f- | f/d/=e/f/ g/a/b/g/ f/e/d/c/ | fc fe/d/ ec | dG gf/e/ fd | ec _ag/f/ ge | %63
 f4- f/e/d/c/ | =Bd- d/G/c- c/c/B | c2 z/ B/A/G/ A2- | A/G/A/B/ G4- | G/F/G/A/ F4- | F>A G>F B>A | %69
 G2 GF z2 | z6 | z2 e2 z c | f2 d2 z B | e2 c2 z _A | dd dd dd | d/c/d/c/ =B/A/B/A/ G2- | %76
 G2- G/G/A/=B/ c2- | c=B/A/ B2 ^A2- | A=A/G/ A2 ^G2- | G=G/F/ G/f/g/_a/ b/a/b | %80
 be z/ e/f/g/ _a/g/a | _ad z/ d/e/f/ g/f/g- | gb _ag fe | dd ef g2- | g/f/g/f/ e/d/e/d/ c/B/c/B/ | %85
 A3 B c2- | c2 B2- B/B/A/G/ | ^F z z2 z2 | z6 | z2 d2 z B | e2 c2 z A | d2 B2 z G | cc cc cc | %93
 c2 z d B2 | z c BA AG | G2 z/ A/B/c/ d/c/d/e/ | A2 z/ B/c/d/ e/d/e/f/ | =B/G/A/B/ c/B/c cc | %98
 c2 z ^f g2 | z/ b/a/g/ ^f/=e/d/c/ B/A/G/^F/ | G6- | G6- | G z/ dcB=AG/ | ^Fc/d/4e/4 d G2 F | %104
 !fermata!G2 z2 z2 |] %105
V:2
 G,,8 | G,8 | D>C B,2 A,3 D- | D>=B, G,E _A,F, G,2- | %4
 G,2 z/ z/4[I:staff -1] E/<D/F/4[I:staff +1] =B,4 | EF G[I:staff -1]^F/>G/ A[I:staff +1] A,2 D- | %6
 DG- G/>G/D/>F/ =E2[I:staff -1] F2- | F[I:staff +1] z z/ z/4 ^C,/<D,/=E,/4 F,G, A,C, | %8
 D,F,- F,/>A,/G,/>F,/ =E,F,G,B, | A,>^F, D,B, E,C, D,2- | %10
 D, z G,2 G,/>F,/C,/>E,/ D,/>B,,/F,,/>_A,,/ | z B,,E,G, C,2 G,2- | %12
 G,>G, E,/>G,/ C,/>E,/ D,/>^F,/A,- A,/>F,/G,/>A,/ | B,2- B,/>B,/A,/>B,/ C/>A,/F,/>A,/ D2- | %14
 D2- D/>_D/C/>B,/ C2- C/>C/F/>E/ | D2[I:staff -1] E2- E[I:staff +1]G,^F,A,- | %16
 A,G,/>^F,/ G,2- G,C- C/>C/G,/>B,/ | A,2[I:staff -1] B,2[I:staff +1] z2 z/ z/4 ^F,/<G,/A,/4 | %18
 B,2- B,/>B,/A,/>G,/ A,4 | G,2- G,>^F, G,3/2=F,/4E,/4 D,/>G,,/G,- | %20
 G,/>F,/E,/>G,/ C,3/4E,/8D,/8E, !fermata!D,4 |[M:3/4] z2 D2 z B, | E2 C2 z A, | D2 B,2 z G, | %24
 CC CC CC | CB,/A,/ B,/G,/B,/C/ D/^C/D | DG, z/ G,/A,/B,/ C/B,/C | CF, z/ F,/G,/A,/ B,/A,/B,- | %28
 B,/A,/B,/A,/ G,/F,/G,/F,/ =E,/D,/E,/D,/ | ^C,A, D,C B,G, | C/B,/C/B,/ A,>G, A,F, | %31
 B,/A,/B,/A,/ G,A,/B,/ C>B, | A,2 z G, ^F,=E, | D,^F, z D/=E/ F/E/F | D2- DC/B,/ A,G, | %35
 C2- CB,/A,/ G,F, | B,2 z2 z2 | G,F,/=E,/ F,/D,/_E,/F,/ G,/F,/G, | %38
 C,/=B,,/C,/D,/ E,/C,/D,/E,/ F,/E,/F, | B,,/F,/G,/A,/ A,/G,/A, z/ =E,/^F,/G,/ | z2 D2 z B, | %41
 E2 C2 z A, | D2 B,2 z G, |[I:staff -1] CC CC CC- | CB,/A,/ B,/G,/A,/B,/ C/B,/C- | %45
 CF/=E/ F[I:staff +1] z z z/[I:staff -1] F/- | F/F/E/D/ E/C/^F/G/ A/G/A | %47
 AG/^F/ G[I:staff +1] z z z/ ^C/ | D/^C/D/A,/ D,D/=E/ FD | G/G,/A,/B,/ C/G,/C/D/ =EC | %50
 F/F,/G,/A,/ B,/F,/B,/C/ D/C/B,/A,/ | B,/D/^C/D/ G,/B,/A,/B,/ =E,/=E/C/A,/ | %52
 D/D,/F,/A,/ D/C/D/C/ B,/D/G,/B,/ | E,/G,/A,/B,/ C/B,/C/B,/ A,/D/F,/A,/ | %54
 D,/F,/G,/A,/ B,/A,/B,/A,/ G,/B,/E,/G,/ | C,/G,/A,/B,/ C/D/C/B,/ A,/F,/G,/A,/ | %56
 B,/A,/B,/C/ D/C/D/=E/ F/G/F- | F2 D2 =E2- | E2 C2 D2- | D4 C2- | C2 z2 z2 | z6 | z6 | z6 | z6 | %65
 z2 C2 z A, | D2 B,2 z G, | C2 A,2 z F, | B,B, B,B, B,B, | B,A,/G,/ A,/G,/A,/=B,/ C/B,/C- | %70
 C=B,/A,/ G,/D,/G,/A,/ B,/C/D- | DC z/ G,/A,/=B,/ C/B,/C | CF, z/ F,/G,/_A,/ B,/A,/B, | %73
 B,E, z/ E,/F,/G,/ _A,/G,/A,- | A,/G,/_A,/G,/ F,/E,/F,/E,/ D,/C,/D,/C,/ | =B,,=B, B,B, CD- | %76
 DG, C2- CF | D4 ^C2 | C4 _C2 | B,2 D2 z B, | E2 C2 z _A, | D2 B,2 z G, | CC CC CC | %83
 D/C/D/C/ B,/_A,/B,/A,/ G,/F,/G,/F,/ | E,E EE EE | E/D/E/D/ C/B,/C/B,/ A,/G,/A,/G,/ | %86
 ^F,A, B,F, G,2 | A, z D2 z B, | E2 C2 z A, | D2 B,2 z G, | C2 A,2 z F, | B,2 G,2 z B, | %92
 A,G, ^DE EE |[I:staff -1] D2[I:staff +1] z[I:staff -1] D D2 |[I:staff +1] z[I:staff -1] E D2 C2 | %95
 B,2[I:staff +1] z2 z/ A,/B,/C/ | D/^C/D- DA,/=B,/ =C/B,/C | D z/ z z D/ C/B,/C/B,/ | A,2 z C D2 | %99
 z2 z/ A,/B,/C/ D2- | D/G,/A,/=B,/ C/B,/C C2 | z/ A,/=B,/C/ D/C/D D2- | DF ED CB, | %103
 A, z z B, A,/B,/C- | C!fermata!=B, z2 z2 |] %105
V:3
 z2 z/ z/4[I:staff -1] B,/<A,/C/4[I:staff +1] ^F,4 | x8 | D,6- D,>E, | F,2 E,2 D,2 G,G,, | x8 | %5
 C2- C/>B,/A,/>C/ ^F,4 | G,4- G,/>A,/=E,/>G,/ F,/>D,/A,,/>C,/ | B,,2 =B,,2 A,,4 | D,8 | %9
 C,2 B,,2 A,,2 D,D,, | G,,B,,/>D,/ z2 z4 | G,,4 A,,2 =B,,2 | C,2 z C,- C,>C, B,,2- | %13
 B,,/>B,,/C,/>D,/ E,2- E,2 z/ z/4 D,/<E,/F,/4 | G,4 F,4- | F,/>G,/D,/>F,/ E,/>C,/G,,/>B,,/ A,,4 | %16
 B,,4 C,4- | C,/>D,/A,,/>C,/ B,,/>G,,/D,,/>F,,/ E,,E,/>D,/ E,=E, | D,8 | G,,8- | G,,8 |[M:3/4] x6 | %22
 x6 | x6 | x6 | x6 | x6 | x6 | x6 | x6 | x6 | x6 | x6 | x6 | B,2 G,2 z =E, | A,2 F,2 z D, | %36
 G,G, G,G, G, z | x6 | x6 | x6 | A,/G,/A, z/ D,/=E,/^F,/ G,/F,/G, | G,C, z/ C,/D,/E,/ F,/E,/F, | %42
 F,B,, z/ B,,/C,/D,/ E,/D,/E,- | E,/D,/E,/D,/ C,/B,,/C,/B,,/ A,,/G,,/A,,/G,,/ | %44
 ^F,,D, G,,F, =E,C, | F,A, D,C =B,G, | CG, C,A, ^F,D, | G,B, =E,D ^CA, | D/ z/ z z2 z2 | x6 | x6 | %51
 x6 | x6 | x6 | x6 | x6 | z2 B,2 z A, | D2 B,2 z G, | C2 A,2 z F, | B,B, B,B, B,B, | %60
 B,A,/G,/ A,/F,/A,/=B,/ C/_B,/C- | C/C/=B,/A,/ B,/G,/B,/C/ D/C/D/ z/ | %62
 D/G,/C/=B,/ C/G,/C/D/ E/D/E- | E>E D>C B,>D | G,=B, CA, F,G, | C,2 z/ C,/D,/E,/ F,/E,/F, | %66
 F,B,, z/ B,,/C,/D,/ E,/D,/E, | E,A,, z/ A,,/B,,/C,/ D,/C,/D,- | %68
 D,/C,/D,/C,/ B,,/A,,/B,,/A,,/ G,,/F,,/G,,/F,,/ | =E,,/C,,/D,,/E,,/ F,,/C,,/F,,/G,,/ _A,,D,, | %70
 G,,/^F,,/G,,/A,,/ =B,,/A,,/B,,/D,/ G,B,, | C,/C/G,/E,/ C,2 z z/ _A,/- | A,/D,B,/ B,2 z z/ G,/- | %73
 G,/C,G,/ _A,2 z z/ F,/ | B,,2 z D, F,,_A,, | G,,G, G,G, A,=B, | E,2- E,/E,/F,/G,/ _A,/G,/A, | %77
 _A,D, z/ D,/E,/F,/ G,/F,/G, | G,C, z/ C,/D,/E,/ F,/E,/F, | F,B,, B,2 z G, | C2 _A,2 z F, | %81
 B,2 G,2 z E, | _A,A, A,A, A,A, | B,_A, G,F, E,D, | C,C CC CC | CB, A,G, ^F,=E, | D,^F, G,D, E,2 | %87
 D,D,, z2 z2 | x6 | z2 z/ D,/=E,/^F,/ G,/F,/G, | G,C, z/ C,/D,/=E,/ F,/E,/F, | %91
 F,B,, z/ B,,/C,/D,/ E,/D,/E,- | E,/D,/E,/D,/ C,/B,,/C,/B,,/ A,,/G,,/A,,/G,,/ | ^F,,2 z D,, G,,2 | %94
 z C, D,2 D,,2 | G,,/D,/=E,/^F,/ G,/F,/G, G,2- | G,F, F,4- | F,/=B,,/C,/D,/ E,/D,/E, E,2- | %98
 E,2 z E, D,2 | z ^C, D,2 z/ B,,/=C,/D,/ | E,2 C,2 z/ A,,/=B,,/C,/ | D,2 =B,,2 z/ G,,/A,,/_B,,/ | %102
 C,C, C,C, C,C, | C,B,,/A,,/ B,,C, D,D,, | !fermata!G,,2 z2 z2 |] %105
V:4
 x8 |[I:staff +1] B,C D/>[I:staff -1]F/E/>G/[I:staff +1] ^C4 | %2
[I:staff -1] z2 z G- G/>G/^F/>=E/ F2 | G2 z c c/>c/=B/>A/ B2 | %4
 z/ z/4 c/<G/B/4 A2- A/>A/G/>F/ d/>F/E/>D/ | z/ z/4 g/<d/f/4 c2- c2- c/>c/_B/>A/ | B4 A4- | %7
 A/>=E/F/>D/ A/4^G/4A/4G/4A/4G/4G/ AB- B/>A/E/>=G/ | F2 z/ z/4 F/<=E/G/4[I:staff +1] ^C4 | %9
[I:staff -1] D2 z G G/>G/^F/>=E/ F2 | %10
 z/ z/4 G/<D/F/4 E[I:staff +1]B, C/>[I:staff -1]D/E/>C/ G/4F/4GF/ | B,2- B,/>B,/E- E/>E/D/>C/ D2- | %12
 D/>=B,/C z2 z2 z/ z/4 A/<B/^F/4 | G4 F/ z/ z z/ z/4 F/<G/A/4 | B4- B/>B/_A/>G/ A2 | %15
 G4- G z z/ z/4 G/<^F/A/4 | D2- D/>^F/G/>D/ E4 | D4- D2 ^C2 | D/>^C/D- D/>=C/D- DC C/>E/D/>C/- | %19
 C/>A,/=B, B,/>B,/C C/>C/B, z/ z/4 c/4=B- | B/>G/c- c/>c/-c- c/>c/d/>A/ !fermata!=B2 |[M:3/4] x6 | %22
 x6 | x6 | x6 | x6 | x6 | x6 | x6 | GF/=E/ F/D/E/^F/ G/E/G | %30
 G[I:staff +1]C[I:staff -1] z/[I:staff +1] C/[I:staff -1]D/E/ F/E/F | %31
 F[I:staff +1]B,[I:staff -1] z/[I:staff +1] B,/[I:staff -1]C/D/ E/D/E- | %32
 E/D/E/D/[I:staff +1] C/B,/C/B,/ A,/G,/A,/G,/ | ^F,[I:staff -1] D2 G z z/ A/- | %34
 A/A/G/F/ =E2 z z/ G/- | G/G/F/=E/ D2 z z/ F/ | =E>F E>D ^C>D | A,2 z2 z z/ d/- | dG CB A/c/e- | %39
 ed z2 z z/ d/ | c/B/c/B/ c>c B/A/B/A/ | G/F/G/F/ F/4E/4F/4E/4F/4E/4D/ C2 | F2 D2 z2 | x6 | x6 | %45
 x6 | x6 | x6 | z2 A2 z F | B2 G2 z =E | A2 F2 z D | GG GG GG | GF z/ A/B/c/ d/c/d | %53
 dG z/ G/A/B/ c/B/c | cF z/ F/G/A/ B/A/B- | B>B A/G/A/G/ F2- | F2 z2 z z/ c/ | %57
 B/c/B/A/ G2 z z/ B/ | A/B/A/G/ F2 z z/ A/ | G6 | F2 z2 z/ G/A/G/ | FD z2 z/ A/=B/A/ | %62
 GE z2 z/ =B/c/B/ | _A/G/A A/G/ A3- | A/_A/G/F/ E>E D>F- | F/F/E/D/ E2 z C | F2 D2 z B, | %67
 E2 C2 z A, | DD DD DD | DC C z z z/ F/ | ED z2 z z/ G/ | FE/F/ G2 z E | _A2 F2 z D | G2 E2 z C | %74
 FF FF FF | FF FF z/ F/G/F/- | F/E/F/E/ E2- E_A | F2 z/ _A/G/F/ =E/F/E/F/ | %78
 =E2 z/ G/F/_E/ D/E/D/E/ | D2 z/ d/e/f/ g/f/g | gc z/ c/d/e/ f/e/f | fB z/ B/c/d/ e/d/e- | %82
 e/_d/e/d/ c/B/c/B/ _A/G/A/G/ | FF G>_A B=B | c/d/e/d/ c/B/c/B/ _A/G/A/G/ | ^F3 G A2- | %86
 A/D/E/D/- D/D/E/D/ C^C | D z z/ A/B/c/ d/c/d | dG z/ G/A/B/ c/B/c | c^F z/ F/G/A/ B/A/B | %90
 BE z/ =E/F/G/ A/G/A | AD z/ D/=E/^F/ G/F/G- | GB AG ^FG | A2 z ^F G2 | z A G2 ^F2 | D2 z2 z2 | %96
 z/ =E/F/G/ A/G/A- A_A | G z z z/ _B/ A/G/A/G/ | ^F2 z A B2 | x6 | z/ =B,/C/D/ E/D/E E2 | %101
 z/ C/D/E/ F/E/F F2- | F_A GF E2 | D z z E D2 | !fermata!D2 z2 z2 |] %105
V:5
 x8 | x8 | x8 | x8 | x8 | x8 | x8 | x8 | x8 | x8 | x8 | x8 | x8 | x8 | x8 | x8 | x8 | x8 | x8 | %19
 x8 | z4 z d- !fermata!d2 |[M:3/4] x6 | x6 | x6 | x6 | x6 | x6 | x6 | x6 | x6 | x6 | x6 | x6 | x6 | %34
 x6 | x6 | x6 | x6 | x6 | x6 | x6 | x6 | x6 | x6 | x6 | x6 | x6 | x6 | x6 | x6 | x6 | x6 | x6 | %53
 x6 | x6 | x6 | x6 | x6 | x6 | x6 | x6 | x6 | x6 | x6 | x6 | x6 | x6 | x6 | x6 | x6 | x6 | x6 | %72
 x6 | x6 | x6 | x6 | x6 | x6 | x6 | x6 | x6 | x6 | x6 | x6 | x6 | x6 | x6 | x6 | x6 | x6 | x6 | %91
 x6 | x6 | x6 | x6 | x6 | x6 | x6 | x6 | x6 | x6 | x6 | x6 | x6 | x6 |] %105

